X:1
T:Un dolce canto
T:Un dolce canto
T:Canone alla 2a
T:G. B. Martini (1706-1784)
C:G. B. Martini (1706-1784)
%%score [ 1 2 3 4 ]
L:1/8
M:2/4
K:F
V:1 treble nm="Soprano"
V:2 treble nm="Alto"
V:3 treble-8 nm="Tenor"
V:4 bass nm="Bass"
V:1
 z[Q:1/4=60] F F F | F2 E2 | z A A A | A2 G2 | z c c c | c2 B2 | z A A A | A2 G2 | z2 A G/ F/ | %9
w: Un dol- ce|can- to|gen- til Te-|re- sa,|un dol- ce|can- to|gen- til Te-|re- sa,|fan- no la|
 G G2 F/ E/ | F F2 (E/D/) | E B2 A/ G/ | A A2 G/ F/ | G G2 (F/E/) | F4 | z C (A/F/) (G/E/) | %16
w: ma- no ed il|tu- o bel _|dir, fan- no la|ma- no ed il|tu- o bel _|dir.|U- na _ fe- *|
 D2 D2 | z c c A | F2 B2- | B A/ G/ A2- | A G/ F/ G F | E z z2 | z4 |: z G G G | G2 F2 | z B B B | %26
w: ri- sce|l'o- rec- chio~e~il|cuor, l'al-|* tro la men-|* te fa stu- pi-|dir.||Un dol- ce|can- to|gen- til Te-|
 B2 A2 | z d d d | d2 c2 | z B B B | B2 A2 | z2 B A/ G/ | A A2 G/ F/ | G G2 (F/E/) | F c2 B/ A/ | %35
w: re- sa,|un dol- ce|can- to|gen- til Te-|re- sa,|fan- no la|ma- no ed il|tu- o bel _|dir, fan- no la|
 B B2 A/ G/ | A A2 (G/F/) | G z z2 | z D (B/G/) (A/F/) | E2 E2 | z d d B | G2 c2- | c B/ A/ B2- | %43
w: ma- no ed il|tu- o bel _|dir.|U- na _ fe- *|ri- sce|l'o- rec- chio~e~il|cuor, l'al-|* tro la men-|
 B A/ G/ A G |1 F z z2 :|2 !fermata!F4 |] %46
w: * te fa stu- pi-|dir.|\-dir.|
V:2
 z4 | z4 | z4 | z4 | z4 | z4 | z4 | z4 | z4 | z4 | z4 | z4 | z4 | z4 | z4 | z4 | z4 | z4 | z4 | %19
w: |||||||||||||||||||
 z4 | z4 | z4 | z F F F |: F2 E2 | z A A A | A2 G2 | z c c c | c2 B2 | z A A A | A2 G2 | %30
w: |||Un dol- ce|can- to|gen- til Te-|re- sa,|un dol- ce|can- to|gen- til Te-|re- sa,|
 z2 A G/ F/ | G G2 F/ E/ | F F2 (E/D/) | E B2 A/ G/ | A A2 G/ F/ | G G2 (F/E/) | F4 | %37
w: fan- no la|ma- no ed il|tu- o bel _|dir, fan- no la|ma- no ed il|tu- o bel _|dir.|
 z C (A/F/) (G/E/) | D2 D2 | z c c A | F2 B2- | B A/ G/ A2- | A G/ F/ G F | E z z2 |1 z F FF :|2 %45
w: U- na _ fe- *|ri- sce|l'o- rec- chio~e~il|cuor, l'al-|* tro la men-|* te fa stu- pi-|dir.|Un dol- ce|
 !fermata!A,4 |] %46
w: Si.|
V:3
 z4 | z4 | z4 | z4 | z4 | z4 | z4 | z4 | z4 | z4 | z4 | z4 | z4 | z4 | z4 | z4 | z4 | z4 | z4 | %19
w: |||||||||||||||||||
 z4 | z4 | z4 | A4 |: B4 | c4 | d4 | e2 e2 | f4 | e4 | (d2 c2) | c4 | c4 | c2 c2 | c4 | c2 c2 | %35
w: |||Un|dol-|ce|can-|to gen-|til|Te-|re- *|sa,|fan-|no la|ma-|no e~il|
 c4 | c4 | c4 | d4 | e2 e2 | d4 | e2 e2 | d4 | c2 c2 |1 A2 A2 :|2 !fermata!A4 |] %46
w: tuo|bel|dir.|U-|na fe-|ri-|sce e|fa|stu- pi-|dir. Un|dir.|
V:4
 z4 | z4 | z4 | z4 | z4 | z4 | z4 | z4 | z4 | z4 | z4 | z4 | z4 | z4 | z4 | z4 | z4 | z4 | z4 | %19
w: |||||||||||||||||||
 z4 | z4 | z4 | F,4 |: G,4 | A,4 | B,4 | C2 C2 | D4 | C4 | (B,2 C2) | F,4 | C4 | C2 C2 | C4 | %34
w: |||Un|dol-|ce|can-|to gen-|til|Te-|re- *|sa,|fan-|no la|ma-|
 C2 C2 | C4 | C4 | C4 | (B,2 G,2) | C2 A,2 | (B,2 G,2) | C2 A,2 | B,4 | C2 C2 |1 F,2 F,2 :|2 %45
w: no e~il|tuo|bel|dir.|U- *|na fe-|ri- *|sce e|fa|stu- pi-|dir. Un|
 !fermata!F,4 |] %46
w: dir.|

